src/assets/svg/frame-about.svg

<svg width="1027" height="518" viewBox="0 0 1027 518" fill="none" xmlns="http://www.w3.org/2000/svg">
<path d="M2 0.595215C2 0.595215 2 41.0423 47.9999 41.0423C82.8117 41.0423 979.5 44.6376 979.5 44.6376C979.5 44.6376 1025 44.6376 1025 84.6352C1025 124.633 1025 476.522 1025 476.522C1025 476.522 1025 515.621 979.5 516.071C940.289 516.458 673.915 512.983 512.694 512.983C512.694 512.983 471.5 512.983 471.5 473.376C471.5 433.769 471.68 226.378 471.68 130.789" stroke="#181306" stroke-width="3"/>
</svg>

<svg xmlns="http://www.w3.org/2000/svg" width="1027" height="518" fill="none"><path stroke="#181306" stroke-width="3" d="M2 .595s0 40.447 46 40.447c34.812 0 931.5 3.596 931.5 3.596s45.5 0 45.5 39.997v391.887s0 39.099-45.5 39.549c-39.211.387-305.585-3.088-466.806-3.088 0 0-41.194 0-41.194-39.607s.18-246.998.18-342.587"/></svg>
